static/assets/icons/desktop.svg

<svg height="24" viewBox="0 0 24 24" width="24" xmlns="http://www.w3.org/2000/svg"><path d="m14 17 .6666667 2h1.8333333c.2761424 0 .5.2238576.5.5s-.2238576.5-.5.5h-9c-.27614237 0-.5-.2238576-.5-.5s.22385763-.5.5-.5h1.83333333l.66666667-2h-6c-.55228475 0-1-.4477153-1-1v-10c0-.55228475.44771525-1 1-1h16c.5522847 0 1 .44771525 1 1v10c0 .5522847-.4477153 1-1 1zm-1.0540926 0h-1.8918148l-.6666667 2h3.2251482zm-8.9459074-3h16v-8h-16zm0 1v1h16v-1z"/></svg>

<?xml version="1.0" encoding="UTF-8"?>
<svg width="24px" height="24px" viewBox="0 0 24 24" version="1.1" xmlns="http://www.w3.org/2000/svg" xmlns:xlink="http://www.w3.org/1999/xlink">
    <!-- Generator: Sketch 63.1 (92452) - https://sketch.com -->
    <title>Icons/Desktop</title>
    <desc>Created with Sketch.</desc>
    <g id="Icons/Desktop" stroke="none" stroke-width="1" fill="none" fill-rule="evenodd">
        <path d="M14,17 L14.6666667,19 L16.5,19 C16.7761424,19 17,19.2238576 17,19.5 C17,19.7761424 16.7761424,20 16.5,20 L7.5,20 C7.22385763,20 7,19.7761424 7,19.5 C7,19.2238576 7.22385763,19 7.5,19 L9.33333333,19 L10,17 L4,17 C3.44771525,17 3,16.5522847 3,16 L3,6 C3,5.44771525 3.44771525,5 4,5 L20,5 C20.5522847,5 21,5.44771525 21,6 L21,16 C21,16.5522847 20.5522847,17 20,17 L14,17 L14,17 Z M12.9459074,17 L11.0540926,17 L10.3874259,19 L13.6125741,19 L12.9459074,17 L12.9459074,17 Z M4,14 L20,14 L20,6 L4,6 L4,14 Z M4,15 L4,16 L20,16 L20,15 L4,15 Z" id="Shape" fill="#000000" fill-rule="nonzero"></path>
    </g>
</svg>
